dist/img/sprites/icon_whatsapp.svg

<svg width="38" height="38" viewBox="0 0 38 38" fill="none" xmlns="http://www.w3.org/2000/svg">
<path d="M19.0018 0.666504C29.1273 0.666504 37.3352 8.87434 37.3352 18.9998C37.3352 29.1253 29.1273 37.3332 19.0018 37.3332C15.7619 37.3384 12.5791 36.481 9.78018 34.849L0.675847 37.3332L3.15451 28.2252C1.52118 25.4254 0.663101 22.2412 0.668513 18.9998C0.668513 8.87434 8.87635 0.666504 19.0018 0.666504ZM12.7538 10.3832L12.3872 10.3978C12.1498 10.4123 11.9178 10.4747 11.7052 10.5812C11.5063 10.6938 11.3248 10.8346 11.1662 10.9992C10.9462 11.2063 10.8215 11.386 10.6877 11.5602C10.0096 12.4418 9.64446 13.5242 9.65001 14.6365C9.65368 15.5348 9.88835 16.4093 10.255 17.227C11.0048 18.8807 12.2387 20.6315 13.8667 22.254C14.259 22.6445 14.644 23.0368 15.0583 23.4017C17.0812 25.1827 19.4918 26.4671 22.0983 27.1527L23.1397 27.3122C23.4788 27.3305 23.818 27.3048 24.159 27.2883C24.693 27.2608 25.2143 27.1162 25.6862 26.8648C25.9263 26.7412 26.1606 26.6066 26.3883 26.4615C26.3883 26.4615 26.4672 26.4102 26.6175 26.2965C26.865 26.1132 27.0172 25.983 27.2225 25.7685C27.3747 25.6108 27.5067 25.4257 27.6075 25.2148C27.7505 24.916 27.8935 24.3458 27.9522 23.871C27.9962 23.508 27.9833 23.31 27.9778 23.1872C27.9705 22.991 27.8073 22.7875 27.6295 22.7013L26.5625 22.2228C26.5625 22.2228 24.9675 21.528 23.9922 21.0843C23.8901 21.0398 23.7808 21.0143 23.6695 21.0092C23.5441 20.9963 23.4173 21.0104 23.2978 21.0506C23.1783 21.0907 23.0687 21.156 22.9765 21.242C22.9673 21.2383 22.8445 21.3428 21.519 22.9488C21.4429 23.0511 21.3381 23.1283 21.218 23.1708C21.0978 23.2132 20.9678 23.2189 20.8443 23.1872C20.7249 23.1551 20.6079 23.1147 20.4942 23.0662C20.2668 22.9708 20.188 22.9342 20.0322 22.8682C18.98 22.409 18.0058 21.7886 17.1447 21.0293C16.9137 20.8277 16.6992 20.6077 16.4792 20.395C15.7579 19.7043 15.1293 18.9228 14.6092 18.0703L14.501 17.8962C14.4233 17.7791 14.3605 17.6529 14.314 17.5203C14.2443 17.2508 14.4258 17.0345 14.4258 17.0345C14.4258 17.0345 14.8713 16.5468 15.0785 16.2828C15.2802 16.0262 15.4507 15.7768 15.5607 15.599C15.777 15.2507 15.8448 14.8932 15.7312 14.6163C15.2178 13.3623 14.6862 12.1138 14.1398 10.8745C14.0317 10.6288 13.7108 10.4528 13.4193 10.418C13.3203 10.407 13.2213 10.396 13.1223 10.3887C12.8761 10.3764 12.6294 10.3789 12.3835 10.396L12.752 10.3813L12.7538 10.3832Z" fill="white"/>
</svg>

<svg width="38" height="38" viewBox="0 0 38 38" fill="none" xmlns="http://www.w3.org/2000/svg"><path d="M19.002.667C29.127.667 37.335 8.874 37.335 19c0 10.125-8.208 18.333-18.333 18.333A18.25 18.25 0 019.78 34.85L.676 37.333l2.479-9.108A18.247 18.247 0 01.669 19C.669 8.874 8.876.667 19.002.667zm-6.248 9.716l-.367.015c-.237.014-.47.077-.682.183a2.37 2.37 0 00-.539.418c-.22.207-.345.387-.478.561a5.005 5.005 0 00-1.038 3.076c.004.899.238 1.773.605 2.591.75 1.654 1.984 3.404 3.612 5.027.392.39.777.783 1.191 1.148a17.322 17.322 0 007.04 3.75l1.042.16c.339.018.678-.007 1.019-.024a3.647 3.647 0 001.527-.423 8.81 8.81 0 00.702-.403s.08-.052.23-.165c.247-.184.4-.314.605-.529.152-.157.284-.342.385-.553.142-.299.285-.87.344-1.344.044-.363.031-.561.026-.684-.008-.196-.17-.4-.349-.486l-1.067-.478s-1.595-.695-2.57-1.139a.912.912 0 00-.323-.075.883.883 0 00-.692.233c-.01-.004-.133.1-1.458 1.707a.642.642 0 01-.675.238 2.638 2.638 0 01-.35-.12c-.227-.096-.306-.133-.462-.199a11.047 11.047 0 01-2.887-1.839c-.231-.201-.446-.421-.666-.634a11.54 11.54 0 01-1.87-2.325l-.108-.174a1.693 1.693 0 01-.187-.376c-.07-.27.112-.485.112-.485s.445-.488.652-.752c.202-.257.373-.506.483-.684.216-.348.284-.706.17-.983a152.584 152.584 0 00-1.591-3.742c-.108-.245-.43-.421-.72-.456a8.064 8.064 0 00-.298-.03 6.194 6.194 0 00-.739.008l.369-.015.002.002z" fill="#fff"/></svg>
